packages/foundations/assets/icons/functional/images/buildings/house_12.svg

<svg width="12" height="12" viewBox="0 0 12 12" fill="none" xmlns="http://www.w3.org/2000/svg">
<g clip-path="url(#clip0_231_110)">
<path fill-rule="evenodd" clip-rule="evenodd" d="M6.00087 1.20001C6.59787 1.20001 6.87887 1.55101 7.13687 1.80901L10.6249 5.28601C10.7096 5.3718 10.7668 5.48095 10.7891 5.59946C10.8113 5.71798 10.7977 5.84044 10.7498 5.95114C10.702 6.06183 10.6222 6.15571 10.5206 6.22073C10.4191 6.28574 10.3004 6.31892 10.1799 6.31601C10.114 6.31973 10.048 6.31023 9.98584 6.28808C9.92367 6.26592 9.86656 6.23156 9.81787 6.18701L9.59487 5.95301V10.191C9.59487 10.519 9.29087 10.8 8.99787 10.8H3.00387C2.84509 10.7949 2.69442 10.7287 2.58321 10.6153C2.47201 10.5018 2.40884 10.3499 2.40687 10.191V5.95301L2.23087 6.14001C2.17576 6.19565 2.11019 6.23985 2.03794 6.27005C1.96569 6.30026 1.88818 6.31588 1.80987 6.31601C1.72861 6.31728 1.64794 6.30202 1.57275 6.27117C1.49757 6.24032 1.42944 6.19451 1.37249 6.13653C1.31554 6.07856 1.27096 6.00961 1.24146 5.93389C1.21196 5.85816 1.19815 5.77724 1.20087 5.69601C1.20087 5.56601 1.24787 5.43801 1.34087 5.34401L4.86487 1.81001C5.12287 1.55001 5.40387 1.20001 6.00087 1.20001ZM6.00087 2.40001L3.60087 4.80001V9.60001H8.40087V4.80001L6.00087 2.40001Z" fill="#1A1C1F"/>
</g>
<defs>
<clipPath id="clip0_231_110">
<rect width="12" height="12" fill="white"/>
</clipPath>
</defs>
</svg>

<svg xmlns="http://www.w3.org/2000/svg" width="12" height="12" fill="none"><g clip-path="url(#a)"><path fill="#1A1C1F" fill-rule="evenodd" d="M6 1.2c.598 0 .879.351 1.137.609l3.488 3.477a.606.606 0 0 1-.445 1.03.5.5 0 0 1-.362-.129l-.223-.234v4.238c0 .328-.304.609-.597.609H3.004a.617.617 0 0 1-.597-.609V5.953l-.176.187a.6.6 0 0 1-.421.176.6.6 0 0 1-.61-.62c0-.13.048-.258.14-.352L4.866 1.81c.258-.26.539-.61 1.136-.61m0 1.2L3.6 4.8v4.8h4.8V4.8z" clip-rule="evenodd"/></g><defs><clipPath id="a"><path fill="#fff" d="M0 0h12v12H0z"/></clipPath></defs></svg>
